**kern	**text	**kern	**text	**kern	**text	**kern	**text
*staff4	*staff4	*staff3	*staff3	*staff2	*staff2	*staff1	*staff1
*I"Tenore	*	*I"Alto	*	*I"Soprano II	*	*I"Soprano I	*
=1-	=1-	=1-	=1-	=1-	=1-	=1-	=1-
*clefGv2	*	*clefGv2	*	*clefG2	*	*clefG2	*
*k[]	*	*k[]	*	*k[]	*	*k[]	*
*met(c|)	*	*met(c|)	*	*met(c|)	*	*met(c|)	*
*M2/2	*	*M2/2	*	*M2/2	*	*M2/2	*
1r	.	[1f	A-	[1a	A-	1r	.
=2	=2	=2	=2	=2	=2	=2	=2
[1F	A-	2f\]	.	2a/]	.	1r	.
.	.	2e\	-ni-	2g/	-ni-	.	.
=3	=3	=3	=3	=3	=3	=3	=3
2F/]	.	1d	-mam	1f	-mam	1r	.
2G/	-ni-	.	.	.	.	.	.
=4	=4	=4	=4	=4	=4	=4	=4
1A	-mam	1c#	me-	2.e/	me-	1r	.
.	.	.	.	4f/	.	.	.
=5	=5	=5	=5	=5	=5	=5	=5
1B-	me-	1d	-am	2g/	.	2r	.
.	.	.	.	[2d/	-am	[2ff\	A-
=6	=6	=6	=6	=6	=6	=6	=6
1A	-am	2r	.	2d/]	.	2ff\]	.
.	.	2A/	di-	2c/	di-	2ee\	-ni-
=7	=7	=7	=7	=7	=7	=7	=7
1D	di-	2.a\	-le-	2.f/	-le-	[1dd	-mam
.	.	4g\	.	4g/	.	.	.
=8	=8	=8	=8	=8	=8	=8	=8
1d	-le-	1f	.	1a	.	1dd]	.
=9	=9	=9	=9	=9	=9	=9	=9
1A	-ctam	1e	-ctam	2a/	-ctam	1cc#	me-
.	.	.	.	2e/	di-	.	.
=10	=10	=10	=10	=10	=10	=10	=10
2r	.	2r	.	1f	-le-	2dd\	-am
2D/	di-	2d\	di-	.	.	2a/	di-
=11	=11	=11	=11	=11	=11	=11	=11
!!linebreak:original
2.A/	-le-	[1c	-le-	[1e	.	2.cc\	-le-
4G/	.	.	.	.	.	4b\	.
=12	=12	=12	=12	=12	=12	=12	=12
1F	.	2c\]	.	2e/]	.	4a/	.
.	.	.	.	.	.	4g/	.
.	.	4B\	.	2d/	.	[2a/	.
.	.	4A/	.	.	.	.	.
=13	=13	=13	=13	=13	=13	=13	=13
1E	-ctam	2c\	-ctam	1e	-ctam	2a/]	.
.	.	2B\	tra-	.	.	2g#/	-ctam
=14	=14	=14	=14	=14	=14	=14	=14
1r	.	2.e\	.	2.g/	tra-	2r	.
.	.	.	.	.	.	[2ee\	tra-
.	.	4e\	-di-	4g/	-di-	.	.
=15	=15	=15	=15	=15	=15	=15	=15
2.A/	tra-	2c\	-di	2e/	-di	4ee\]	.
.	.	.	.	.	.	4ee\	-di-
.	.	2c\	in	2e/	in	2cc\	-di
4A/	-di-	.	.	.	.	.	.
=16	=16	=16	=16	=16	=16	=16	=16
2F/	-di	[1f	ma-	1a	ma-	1cc	in
2F/	in	.	.	.	.	.	.
=17	=17	=17	=17	=17	=17	=17	=17
1B-	ma-	2f\]	.	1f	-nus	1dd	ma-
.	.	2d\	-nus	.	.	.	.
=18	=18	=18	=18	=18	=18	=18	=18
1G	-nus	1g	i-	1b-	i-	1dd	-nus
=19	=19	=19	=19	=19	=19	=19	=19
1c	i-	2r	.	1g	.	1ee	i-
.	.	2e\	-ni-	.	.	.	.
=20	=20	=20	=20	=20	=20	=20	=20
1A	-ni-	1a	-quo-	2.cc\	.	1ee	-ni-
.	.	.	.	4b\	-ni-	.	.
=21	=21	=21	=21	=21	=21	=21	=21
!!linebreak:original
[1d	-quo-	2f\	.	[1a	-quo-	1dd	-quo-
.	.	[2f\	.	.	.	.	.
=22	=22	=22	=22	=22	=22	=22	=22
1d]	.	2f\]	.	2a/]	.	2.a/	.
.	.	4e\	.	4g/	.	.	.
.	.	4d\	.	4f/	.	4b\	.
=23	=23	=23	=23	=23	=23	=23	=23
[1c	.	2e\	.	1a	.	[1cc	.
.	.	[2f\	.	.	.	.	.
=24	=24	=24	=24	=24	=24	=24	=24
1c]	.	2f\]	.	1g	.	1cc]	.
.	.	2e\	.	.	.	.	.
=25	=25	=25	=25	=25	=25	=25	=25
1F	-rum,	1f	-rum,	1a	-rum,	1cc	-rum,
=26	=26	=26	=26	=26	=26	=26	=26
2r	.	2r	.	2r	.	2r	.
2F/	et	2f\	et	2a/	et	2cc\	et
=27	=27	=27	=27	=27	=27	=27	=27
2.c\	fa-	2.e\	fa-	2.g/	fa-	2.cc\	fa-
4c\	-cta	4e\	-cta	4g/	-cta	4cc\	-cta
=28	=28	=28	=28	=28	=28	=28	=28
2c\	est	2e\	est	2g/	est	2cc\	est
2F/	he-	2f\	he-	2a/	he-	2cc\	he-
=29	=29	=29	=29	=29	=29	=29	=29
1c	-re-	1e	-re-	1g	-re-	1cc	-re-
=30	=30	=30	=30	=30	=30	=30	=30
2G/	-di-	2d\	-di-	2g/	-di-	2b\	-di-
2G/	-tas	2d\	-tas	2g/	-tas	2b\	-tas
=31	=31	=31	=31	=31	=31	=31	=31
1A	me-	1c	me-	1e	me-	1a	me-
=32	=32	=32	=32	=32	=32	=32	=32
!!pagebreak:original
1E	-a	1B	-a	1e	-a	1g#	-a
=33	=33	=33	=33	=33	=33	=33	=33
2A/	sic-	2c\	sic-	2e/	sic-	2a/	sic-
2A/	-ut	2c\	-ut	2e/	-ut	2a/	-ut
=34	=34	=34	=34	=34	=34	=34	=34
1F	le-	1f	le-	1a	le-	1cc	le-
=35	=35	=35	=35	=35	=35	=35	=35
2c\	-o	1e	-o	1a	-o	1cc	-o
2C/	in	.	.	.	.	.	.
=36	=36	=36	=36	=36	=36	=36	=36
2.E/	sil-	2B\	in	1e	in	1g	in
.	.	[2c\	sil-	.	.	.	.
4F/	.	.	.	.	.	.	.
=37	=37	=37	=37	=37	=37	=37	=37
1G	.	2c\]	.	1d	sil-	1g	sil-
.	.	2B\	.	.	.	.	.
=38	=38	=38	=38	=38	=38	=38	=38
1C	-va:	1c	-va:	1e	-va:	1g	-va:
=39	=39	=39	=39	=39	=39	=39	=39
2r	.	2r	.	2r	.	2r	.
[2G/	de-	[2d\	de-	[2g/	de-	[2b\	de-
=40	=40	=40	=40	=40	=40	=40	=40
2G/]	.	2d\]	.	2g/]	.	2b\]	.
2G/	-dit	2d\	-dit	2g/	-dit	2b\	-dit
=41	=41	=41	=41	=41	=41	=41	=41
2E/	con-	2e\	con-	2g/	con-	2b\	con-
2A/	-tra	2c\	-tra	2e/	-tra	2a/	-tra
=42	=42	=42	=42	=42	=42	=42	=42
2G/	me	2d\	me	2g/	me	2b\	me
[2F/	vo-	[2f\	vo-	[2a/	vo-	[2cc\	vo-
=43	=43	=43	=43	=43	=43	=43	=43
!!linebreak:original
2F/]	.	2f\]	.	2a/]	.	2cc\]	.
2c\	-ces	2e\	-ces	2g/	-ces	2cc\	-ces
=44	=44	=44	=44	=44	=44	=44	=44
2G/	ad-	2d\	ad-	2g/	ad-	2b\	ad-
2G/	-ver-	2d\	-ver-	2g/	-ver-	2b\	-ver-
=45	=45	=45	=45	=45	=45	=45	=45
2.c\	-sa-	2.e\	-sa-	2.g/	-sa-	2.cc\	-sa-
4c\	-ri-	4e\	-ri-	4g/	-ri-	4cc\	-ri-
=46	=46	=46	=46	=46	=46	=46	=46
1F	-us,	1f	-us,	1a	-us,	1cc	-us,
=47	=47	=47	=47	=47	=47	=47	=47
1A	di-	1c	di-	1e	di-	1cc	di-
=48	=48	=48	=48	=48	=48	=48	=48
1G	-cens:	1e	-cens:	1g	-cens:	1b	-cens:
=49	=49	=49	=49	=49	=49	=49	=49
2r	.	2r	.	2r	.	2r	.
[2E/	Con-	[2e\	Con-	[2g/	Con-	[2b\	Con-
=50	=50	=50	=50	=50	=50	=50	=50
2E/]	.	2e\]	.	2g/]	.	2b\]	.
2A/	-gre-	2c\	-gre-	2e/	-gre-	2a/	-gre-
=51	=51	=51	=51	=51	=51	=51	=51
2.G/	-ga-	2.e\	-ga-	2.g/	-ga-	2.b\	-ga-
4G/	-mi-	4e\	-mi-	4g/	-mi-	4b\	-mi-
=52	=52	=52	=52	=52	=52	=52	=52
2C/	-ni,	2e\	-ni,	1g	-ni,	2cc\	-ni,
2C/	et	2e\	et	.	.	2cc\	et
=53	=53	=53	=53	=53	=53	=53	=53
2G/	pro-	2d\	pro-	1g	et	2b\	pro-
2E/	-pe-	2e\	-pe-	.	.	2b\	-pe-
=54	=54	=54	=54	=54	=54	=54	=54
!!linebreak:original
1A	-ra-	1c	-ra-	2e/	pro-	1a	-ra-
.	.	.	.	2f#/	-pe-	.	.
=55	=55	=55	=55	=55	=55	=55	=55
1G	-te	1d	-te	2g/	-ra-	2.b\	-te
.	.	.	.	4g/	-te	.	.
.	.	.	.	4b\	ad	4g/	.
=56	=56	=56	=56	=56	=56	=56	=56
2F/	ad	2r	.	4cc\	de-	4a/	.
.	.	.	.	4cc\	-vo-	4a/	ad
4A/	de-	2c\	ad	2a/	-ran-	[2cc\	de-
4A/	-vo-	.	.	.	.	.	.
=57	=57	=57	=57	=57	=57	=57	=57
2c\	-ran-	4e\	de-	4g/	-dum	2cc\]	.
.	.	4e\	-vo-	4g/	ad	.	.
2F/	-dum	2f\	-ran-	4a/	de-	2cc\	-vo-
.	.	.	.	4a/	-vo-	.	.
=58	=58	=58	=58	=58	=58	=58	=58
2.A/	il-	2e\	-dum	2cc\	-ran-	2cc\	-ran-
.	.	[2f\	il-	2a/	-dum	2cc\	-dum
4B\	.	.	.	.	.	.	.
=59	=59	=59	=59	=59	=59	=59	=59
1c	.	2f\]	.	1g	il-	1cc	il-
.	.	2e\	.	.	.	.	.
=60	=60	=60	=60	=60	=60	=60	=60
1F	-lum:	1f	-lum:	1a	-lum:	1cc	-lum:
=61	=61	=61	=61	=61	=61	=61	=61
2r	.	2r	.	2r	.	2r	.
[2A/	po-	[2c\	po-	[2e/	po-	[2a/	po-
=62	=62	=62	=62	=62	=62	=62	=62
2A/]	.	2c\]	.	2e/]	.	2a/]	.
2A/	-su-	2c\	-su-	2e/	-su-	2a/	-su-
=63	=63	=63	=63	=63	=63	=63	=63
2A/	-e-	2c\	-e-	2e/	-e-	2a/	-e-
2A/	-runt	2c\	-runt	2e/	-runt	2a/	-runt
=64	=64	=64	=64	=64	=64	=64	=64
!!pagebreak:original
1E	me	1B	me	1e	me	1g#	me
=65	=65	=65	=65	=65	=65	=65	=65
1A	in	1c#	in	1e	in	1a	in
=66	=66	=66	=66	=66	=66	=66	=66
2D/	de-	2d\	de-	2f/	de-	2a/	de-
[2F/	-ser-	[2c\	-ser-	[2f/	-ser-	[2a/	-ser-
=67	=67	=67	=67	=67	=67	=67	=67
2F/]	.	2c\]	.	2f/]	.	2a/]	.
2C/	-to	2c\	-to	2e/	-to	2g/	-to
=68	=68	=68	=68	=68	=68	=68	=68
2D/	so-	2A/	so-	2d/	so-	2f/	so-
2D/	-li-	2A/	-li-	2d/	-li-	2f/	-li-
=69	=69	=69	=69	=69	=69	=69	=69
[1D	-tu-	[1A	-tu-	[1d	-tu-	[1f	-tu-
=70	=70	=70	=70	=70	=70	=70	=70
2D/]	.	2A/]	.	2d/]	.	2f/]	.
2D/	-di-	2A/	-di-	2d/	-di-	2f/	-di-
=71	=71	=71	=71	=71	=71	=71	=71
1AA	-nis,	1A	-nis,	1c#	-nis,	1e	-nis,
=72	=72	=72	=72	=72	=72	=72	=72
2r	.	2r	.	2r	.	2r	.
2A/	et	2c\	et	2e/	et	2a/	et
=73	=73	=73	=73	=73	=73	=73	=73
2G/	lu-	2d\	lu-	2g/	lu-	2b\	lu-
2F/	-xit	2f\	-xit	2a/	-xit	2cc\	-xit
=74	=74	=74	=74	=74	=74	=74	=74
2c\	su-	2e\	su-	2g/	su-	2cc\	su-
2G/	-per	2d\	-per	2g/	-per	2b\	-per
=75	=75	=75	=75	=75	=75	=75	=75
!!linebreak:original
2A/	me	2c\	me	2e/	me	2cc\	me
[2F/	o-	[2c\	o-	[2f/	o-	[2a/	o-
=76	=76	=76	=76	=76	=76	=76	=76
2F/]	.	2c\]	.	2f/]	.	2a/]	.
2A/	-mnis	2c\	-mnis	2e/	-mnis	2cc\	-mnis
=77	=77	=77	=77	=77	=77	=77	=77
[1G	ter-	[1d	ter-	[1g	ter-	[1b-	ter-
=78	=78	=78	=78	=78	=78	=78	=78
1G]	.	2d\]	.	1g]	.	1b-]	.
.	.	2e\	.	.	.	.	.
=79	=79	=79	=79	=79	=79	=79	=79
[1F	-ra:	[1f	-ra:	[1c	-ra:	[1a	-ra:
=80	=80	=80	=80	=80	=80	=80	=80
1F]	.	1f]	.	1c]	.	1a]	.
=81||	=81||	=81||	=81||	=81||	=81||	=81||	=81||
1r	.	1c	Qui-	1r	.	1r	.
=82	=82	=82	=82	=82	=82	=82	=82
1r	.	2c\	-a	1r	.	1r	.
.	.	2d\	non	.	.	.	.
=83	=83	=83	=83	=83	=83	=83	=83
1A	Qui-	2e\	est	1r	.	1cc	Qui-
.	.	2f\	in-	.	.	.	.
=84	=84	=84	=84	=84	=84	=84	=84
2A/	-a	1e	.	1r	.	2cc\	-a
2G/	non	.	.	.	.	2b\	non
=85	=85	=85	=85	=85	=85	=85	=85
2F/	est	2f\	-ven-	1c	Qui-	2a/	est
2E/	in-	2c\	-tus	.	.	2g/	in-
=86	=86	=86	=86	=86	=86	=86	=86
!!linebreak:original
1F	-ven-	1A	qui	2c/	-a	1a	-ven-
.	.	.	.	2d/	non	.	.
=87	=87	=87	=87	=87	=87	=87	=87
2E/	-tus	2B\	me	2e/	est	2g/	-tus
2D/	qui	[2d\	a-	2f/	in-	2a/	qui
=88	=88	=88	=88	=88	=88	=88	=88
1A	me	2d\]	.	1e	-ven-	1a	me
.	.	2c\	-gno-	.	.	.	.
=89	=89	=89	=89	=89	=89	=89	=89
1D	a-	2d\	-sce-	2f/	-tus	1a	a-
.	.	2A/	.	2f/	qui	.	.
=90	=90	=90	=90	=90	=90	=90	=90
2.G/	-gno-	1B	-ret,	1d	me	1g	-gno-
4F/	.	.	.	.	.	.	.
=91	=91	=91	=91	=91	=91	=91	=91
1E	.	2r	.	2e/	a-	1g	-sce-
.	.	2B\	et	[2g/	-gno-	.	.
=92	=92	=92	=92	=92	=92	=92	=92
1D	-sce-	2.d\	fa-	2g/]	.	2.a/	.
.	.	.	.	2f/	-sce-	.	.
.	.	4d\	-ce-	.	.	4b\	.
=93	=93	=93	=93	=93	=93	=93	=93
2C/	-ret,	1e	-ret	1g	-ret,	[1cc	-ret,
2C/	et	.	.	.	.	.	.
=94	=94	=94	=94	=94	=94	=94	=94
[1F	fa-	1A	et	2c/	et	1cc]	.
.	.	.	.	[2f/	fa-	.	.
=95	=95	=95	=95	=95	=95	=95	=95
2F/]	.	2.c\	fa-	2f/]	.	2a/	et
2E/	-ce-	.	.	2g/	-ce-	[2cc\	fa-
.	.	4c\	-ce-	.	.	.	.
=96	=96	=96	=96	=96	=96	=96	=96
[1F	-ret	1A	-ret	2a/	-ret	2cc\]	.
.	.	.	.	[2f/	be-	2cc\	-ce-
=97	=97	=97	=97	=97	=97	=97	=97
!!pagebreak:original
1F]	.	[1c	be-	4f/]	.	1a	-ret
.	.	.	.	4c/	.	.	.
.	.	.	.	[2f/	.	.	.
=98	=98	=98	=98	=98	=98	=98	=98
1C	be-	1c]	.	2f/]	.	1g	be-
.	.	.	.	2e/	.	.	.
=99	=99	=99	=99	=99	=99	=99	=99
[1F	-ne.	[1c	-ne.	[1f	-ne.	[1a	-ne.
=100	=100	=100	=100	=100	=100	=100	=100
1F]	.	1c]	.	1f]	.	1a]	.
=101||	=101||	=101||	=101||	=101||	=101||	=101||	=101||
1r	.	1f	In-	1a	In-	1cc	In-
=102	=102	=102	=102	=102	=102	=102	=102
1r	.	2f\	-sur-	2a/	-sur-	2cc\	-sur-
.	.	2c\	-re-	2cc\	-re-	2ee\	-re-
=103	=103	=103	=103	=103	=103	=103	=103
1r	.	1d	-xe-	1b	-xe-	1dd	-xe-
=104	=104	=104	=104	=104	=104	=104	=104
1r	.	2c\	-runt	2cc\	-runt	2ee\	-runt
.	.	[2f\	in	[2a/	in	[2cc\	in
=105	=105	=105	=105	=105	=105	=105	=105
1r	.	2f\]	.	2a/]	.	2cc\]	.
.	.	2c\	me	2cc\	me	2ee\	me
=106	=106	=106	=106	=106	=106	=106	=106
1r	.	1g	vi-	1b	vi-	1dd	vi-
=107	=107	=107	=107	=107	=107	=107	=107
1r	.	1g	-ri	1b	-ri	1dd	-ri
=108	=108	=108	=108	=108	=108	=108	=108
1r	.	1r	.	1r	.	2r	.
.	.	.	.	.	.	[2ee\	ab-
=109	=109	=109	=109	=109	=109	=109	=109
!!linebreak:original
1r	.	1a	ab-	1cc	ab-	2ee\]	.
.	.	.	.	.	.	2ee\	-sque
=110	=110	=110	=110	=110	=110	=110	=110
1r	.	2a\	-sque	1cc	-sque	2ee\	mi-
.	.	2a\	mi-	.	.	2ee\	-se-
=111	=111	=111	=111	=111	=111	=111	=111
1r	.	2a\	-se-	1cc	mi-	2ee\	-ri-
.	.	2e\	-ri-	.	.	[2gg\	-cor-
=112	=112	=112	=112	=112	=112	=112	=112
1r	.	[1g	-cor-	2b\	-se-	4gg\]	.
.	.	.	.	.	.	4ff\	.
.	.	.	.	2cc\	-ri-	[2ee\	.
=113	=113	=113	=113	=113	=113	=113	=113
1r	.	2g\]	.	2.a/	-cor-	2ee\]	.
.	.	2f\	-di-	.	.	2dd\	-di-
.	.	.	.	4a/	-di-	.	.
=114	=114	=114	=114	=114	=114	=114	=114
1r	.	1e	-a,	1g	-a,	1ee	-a,
=115	=115	=115	=115	=115	=115	=115	=115
1r	.	1r	.	1r	.	2r	.
.	.	.	.	.	.	[2ee\	et
=116	=116	=116	=116	=116	=116	=116	=116
1r	.	1a	et	1cc	et	2ee\]	.
.	.	.	.	.	.	[2dd\	non
=117	=117	=117	=117	=117	=117	=117	=117
1r	.	1f	non	1a	non	2dd\]	.
.	.	.	.	.	.	2cc\	pe-
=118	=118	=118	=118	=118	=118	=118	=118
1r	.	2f\	pe-	2a/	pe-	2cc\	-per-
.	.	2f\	-per-	2a/	-per-	[2dd\	-ce-
=119	=119	=119	=119	=119	=119	=119	=119
1r	.	1g	-ce-	1b	-ce-	2dd\]	.
.	.	.	.	.	.	[2b\	-runt
=120	=120	=120	=120	=120	=120	=120	=120
!!linebreak:original
1r	.	1e	-runt	1g	-runt	2b\]	.
.	.	.	.	.	.	[2cc\	a-
=121	=121	=121	=121	=121	=121	=121	=121
1r	.	1f	a-	2.a/	a-	2cc\]	.
.	.	.	.	.	.	2dd\	-ni-
.	.	.	.	4a/	-ni-	.	.
=122	=122	=122	=122	=122	=122	=122	=122
1r	.	2e\	-ni-	2g/	-mae	1ee	-mae
.	.	2c\	-mae	[2cc\	me-	.	.
=123	=123	=123	=123	=123	=123	=123	=123
1r	.	[1g	me-	2cc\]	.	[1dd	me-
.	.	.	.	4b\	.	.	.
.	.	.	.	4a/	.	.	.
=124	=124	=124	=124	=124	=124	=124	=124
1r	.	1g]	.	1b	.	1dd]	.
=125	=125	=125	=125	=125	=125	=125	=125
1r	.	[1c	-ae.	[1cc	-ae.	[1ee	-ae.
=126	=126	=126	=126	=126	=126	=126	=126
1r	.	1c]	.	1cc]	.	1ee]	.
=127||	=127||	=127||	=127||	=127||	=127||	=127||	=127||
1r	.	1c	Qui-	1r	.	1r	.
=128	=128	=128	=128	=128	=128	=128	=128
1r	.	2c\	-a	1r	.	1r	.
.	.	2d\	non	.	.	.	.
=129	=129	=129	=129	=129	=129	=129	=129
1A	Qui-	2e\	est	1r	.	1cc	Qui-
.	.	2f\	in-	.	.	.	.
=130	=130	=130	=130	=130	=130	=130	=130
2A/	-a	1e	.	1r	.	2cc\	-a
2G/	non	.	.	.	.	2b\	non
=131	=131	=131	=131	=131	=131	=131	=131
!!pagebreak:original
2F/	est	2f\	-ven-	1c	Qui-	2a/	est
2E/	in-	2c\	-tus	.	.	2g/	in-
=132	=132	=132	=132	=132	=132	=132	=132
1F	-ven-	1A	qui	2c/	-a	1a	-ven-
.	.	.	.	2d/	non	.	.
=133	=133	=133	=133	=133	=133	=133	=133
2E/	-tus	2B\	me	2e/	est	2g/	-tus
2D/	qui	[2d\	a-	2f/	in-	2a/	qui
=134	=134	=134	=134	=134	=134	=134	=134
1A	me	2d\]	.	1e	-ven-	1a	me
.	.	2c\	-gno-	.	.	.	.
=135	=135	=135	=135	=135	=135	=135	=135
1D	a-	2d\	-sce-	2f/	-tus	1a	a-
.	.	2A/	.	2f/	qui	.	.
=136	=136	=136	=136	=136	=136	=136	=136
2.G/	-gno-	1B	-ret,	1d	me	1g	-gno-
4F/	.	.	.	.	.	.	.
=137	=137	=137	=137	=137	=137	=137	=137
1E	.	2r	.	2e/	a-	1g	-sce-
.	.	2B\	et	[2g/	-gno-	.	.
=138	=138	=138	=138	=138	=138	=138	=138
1D	-sce-	2.d\	fa-	2g/]	.	2.a/	.
.	.	.	.	2f/	-sce-	.	.
.	.	4d\	-ce-	.	.	4b\	.
=139	=139	=139	=139	=139	=139	=139	=139
2C/	-ret,	1e	-ret	1g	-ret,	[1cc	-ret,
2C/	et	.	.	.	.	.	.
=140	=140	=140	=140	=140	=140	=140	=140
[1F	fa-	1A	et	2c/	et	1cc]	.
.	.	.	.	[2f/	fa-	.	.
=141	=141	=141	=141	=141	=141	=141	=141
!!linebreak:original
2F/]	.	2.c\	fa-	2f/]	.	2a/	et
2E/	-ce-	.	.	2g/	-ce-	[2cc\	fa-
.	.	4c\	-ce-	.	.	.	.
=142	=142	=142	=142	=142	=142	=142	=142
[1F	-ret	1A	-ret	2a/	-ret	2cc\]	.
.	.	.	.	[2f/	be-	2cc\	-ce-
=143	=143	=143	=143	=143	=143	=143	=143
1F]	.	[1c	be-	4f/]	.	1a	-ret
.	.	.	.	4c/	.	.	.
.	.	.	.	[2f/	.	.	.
=144	=144	=144	=144	=144	=144	=144	=144
1C	be-	1c]	.	2f/]	.	1g	be-
.	.	.	.	2e/	.	.	.
=145	=145	=145	=145	=145	=145	=145	=145
[1F	-ne.	[1c	-ne.	[1f	-ne.	[1a	-ne.
=146	=146	=146	=146	=146	=146	=146	=146
1F]	.	1c]	.	1f]	.	1a]	.
==	==	==	==	==	==	==	==
*-	*-	*-	*-	*-	*-	*-	*-
!!!OTL: Animam meam 
!!!COM: Ingegneri, Marc' Antonio
!!!CDT: ca. 1535/36-1592-07-01
!!!TXO: Latin
!!!ODT: 
!!!ARL: Klasztor OO. Paulinów na Jasnej Górze
!!!voices:	5
!!title: @{OTL}, @{GTL}, ed. @{ENC}
!!!pag:
!!!GTL: Responsoria in Hebdomada majore
!!!EFL: 
!!!YEM: Creative Commons CC/BY/NC/SA 4.0
!!!ENC: Marcin Konik
!!!END: 2015-0m-dd
!!!EED: Marcin Konik
!!!EEV: 
!!!ONB: Encoded in vim by Marcin Konik
!!!CharacterEncoding: utf-8
!!!RDF**kern: l=long note in original notation
!!!RDF**kern: i=editorial accidental
!!muse2ps: z14jc180F
